img/weathericons/heavyrainshowers_polartwilight.svg

<svg viewBox="0 0 100 100" xmlns="http://www.w3.org/2000/svg" xmlns:xlink="http://www.w3.org/1999/xlink"><mask id="a"><path d="m0 0h100v100h-100z" fill="#fff"/><use height="100" stroke="#000" stroke-linejoin="round" stroke-width="10" transform="translate(3 18)" width="100" xlink:href="#f"/></mask><mask id="b"><path d="m0 0h100v100h-100z" fill="#fff"/></mask><radialGradient id="c" cx="41" cy="41" gradientUnits="userSpaceOnUse" r="41"><stop offset=".54" stop-color="#d6b849"/><stop offset=".67" stop-color="#ffce47"/><stop offset="1" stop-color="#ffdb73"/></radialGradient><linearGradient id="d" x1="0%" x2="100%" y1="0%" y2="100%"><stop offset="0" stop-color="#ffaf22"/><stop offset="1" stop-color="#f09900"/></linearGradient><symbol id="e"><path d="m2.5 13a2.5 2.5 0 0 1 -2.29-3.49l3.55-8a2.5 2.5 0 0 1 4.57 2l-3.55 8a2.5 2.5 0 0 1 -2.28 1.49z" fill="#0062bf"/></symbol><symbol id="f"><path d="m55.7 5a23.94 23.94 0 0 0 -21.33 13.05 9.9 9.9 0 0 0 -12.78 5.56 15 15 0 0 0 -1.71-.1 14.81 14.81 0 0 0 -10.68 4.49 14.63 14.63 0 0 0 -4.2 10.17v.21a14.83 14.83 0 0 0 14.88 14.68h55.71a14.3 14.3 0 0 0 3.67-28.14 23.93 23.93 0 0 0 -23.56-19.92z"/><image height="43" width="85" x="5" xlink:href="data:image/png;base64,iVBORw0KGgoAAAANSUhEUgAAAFYAAAAkCAMAAAAkYj0PAAAABGdBTUEAALGPC/xhBQAAAAFzUkdCAK7OHOkAAAAVUExURSgoKExpcaCgoFBQUG5ublBQUISEhI1fsT0AAAAHdFJOUxsACBsPFRpGXuFgAAABWElEQVRIx7XV25bDIAgF0BMu/v8nF/E+iWlqHNKVN3cpIMXxL4GFM3SQfTazkUyxk63oLYwlVSy2silXkS/wUrZS2a3ZCn1zsdSw7UUYijuHsTa1IvfwWrbSXLkc4N9r27JViwmM1UtWXA3hohQ41m6vl8FQZi7wu2z7KXPW4uRiZS+2AmdXN7DdQEQWQHYHlt6z0dXBBa2xeeVktiZc1jDoF5eGkI4d4MjKc7cNbZ3bqjocLLx5oPDYTaIftcfvAvcs2GFxVsJTOP1wO1jGdUSLaz/DWA1Tl45+Tkqul2ArcPzayGq8JafOUffP3TUp6JQs+Rptc6vtmtBkUw+dv0NzWG0PYf8O7Ym09+ITXyXOPZqEX95aFe3PKxRsL2XV3HR+ZALirPSF0ceHp6F51WBv1A22VaW2GHWzWvat8LOAPf4CrjrA+neNK7+PQBf/DmmLrId09/QDWyESBsibwBUAAAAASUVORK5CYII=" y="14"/></symbol><symbol id="g"><path d="m66.64 47.86 15.36-6.86-15.36-6.88 9.84-13.66-16.72 1.76 1.7-16.75-13.6 9.89-6.86-15.36-6.88 15.36-13.66-9.84 1.76 16.72-16.75-1.7 9.89 13.6-15.36 6.86 15.36 6.83-9.84 13.71 16.72-1.76-1.7 16.75 13.6-9.89 6.86 15.36 6.83-15.36 13.66 9.84-1.71-16.72 16.75 1.69z" fill="url(#c)"/><path d="m19.28 53.5a25 25 0 1 0 9.15-34.16 25 25 0 0 0 -9.15 34.16z" fill="#ffd348"/><path d="m22.74 51.5a21 21 0 1 0 7.69-28.69 21 21 0 0 0 -7.69 28.69z" fill="url(#d)"/></symbol><symbol id="h"><use fill="#999" height="100" transform="translate(3 18)" width="100" xlink:href="#f"/><use height="100" transform="translate(18 78)" width="100" xlink:href="#e"/><use height="100" transform="translate(32 87)" width="100" xlink:href="#e"/><use height="100" transform="translate(47 79)" width="100" xlink:href="#e"/><use height="100" transform="translate(60 78)" width="100" xlink:href="#e"/><use height="100" transform="translate(74 87)" width="100" xlink:href="#e"/></symbol><symbol id="i"><g mask="url(#b)"><use height="100" transform="translate(4 -40)" width="100" xlink:href="#g"/></g><path d="m88.29 2.7h-86.58a1.56 1.56 0 0 1 -1.71-1.35 1.56 1.56 0 0 1 1.71-1.35h86.58a1.56 1.56 0 0 1 1.71 1.35 1.56 1.56 0 0 1 -1.71 1.35z" fill="#333"/></symbol><symbol id="j"><g mask="url(#a)"><use height="100" transform="matrix(.7 0 0 .7 0 19)" width="100" xlink:href="#i"/></g><use height="100" width="100" xlink:href="#h"/></symbol><use height="100" width="100" xlink:href="#j"/></svg>

<svg x="0" y="0" viewBox="0 0 100 100" xmlns="http://www.w3.org/2000/svg" xmlns:xlink="http://www.w3.org/1999/xlink">
  <symbol id="raindrop">
    <path fill="#0062bf" d="M2.5,13A2.5,2.5,0,0,1,.21,9.51l3.55-8a2.5,2.5,0,0,1,4.57,2l-3.55,8A2.5,2.5,0,0,1,2.5,13Z"></path>
  </symbol>
  <symbol id="cloud">
    <path d="M55.7,5A23.94,23.94,0,0,0,34.37,18.05a9.9,9.9,0,0,0-12.78,5.56,15,15,0,0,0-1.71-.1A14.81,14.81,0,0,0,9.2,28,14.63,14.63,0,0,0,5,38.17v.21A14.83,14.83,0,0,0,19.88,53.06H75.59a14.3,14.3,0,0,0,3.67-28.14A23.93,23.93,0,0,0,55.7,5Z"></path>
    <image x="5" y="14" width="85" height="43" xlink:href="data:image/png;base64,iVBORw0KGgoAAAANSUhEUgAAAFYAAAAkCAMAAAAkYj0PAAAABGdBTUEAALGPC/xhBQAAAAFzUkdCAK7OHOkAAAAVUExURSgoKExpcaCgoFBQUG5ublBQUISEhI1fsT0AAAAHdFJOUxsACBsPFRpGXuFgAAABWElEQVRIx7XV25bDIAgF0BMu/v8nF/E+iWlqHNKVN3cpIMXxL4GFM3SQfTazkUyxk63oLYwlVSy2silXkS/wUrZS2a3ZCn1zsdSw7UUYijuHsTa1IvfwWrbSXLkc4N9r27JViwmM1UtWXA3hohQ41m6vl8FQZi7wu2z7KXPW4uRiZS+2AmdXN7DdQEQWQHYHlt6z0dXBBa2xeeVktiZc1jDoF5eGkI4d4MjKc7cNbZ3bqjocLLx5oPDYTaIftcfvAvcs2GFxVsJTOP1wO1jGdUSLaz/DWA1Tl45+Tkqul2ArcPzayGq8JafOUffP3TUp6JQs+Rptc6vtmtBkUw+dv0NzWG0PYf8O7Ym09+ITXyXOPZqEX95aFe3PKxRsL2XV3HR+ZALirPSF0ceHp6F51WBv1A22VaW2GHWzWvat8LOAPf4CrjrA+neNK7+PQBf/DmmLrId09/QDWyESBsibwBUAAAAASUVORK5CYII="></image>
  </symbol>
  <symbol id="sun">
    <path class="sun-glow" fill="url(#sun-glow-grad)" d="M66.64,47.86,82,41,66.64,34.12l9.84-13.66L59.76,22.22,61.46,5.47l-13.6,9.89L41,0,34.12,15.36,20.46,5.52l1.76,16.72L5.47,20.54l9.89,13.6L0,41l15.36,6.83L5.52,61.54l16.72-1.76L20.54,76.53l13.6-9.89L41,82l6.83-15.36,13.66,9.84L59.78,59.76l16.75,1.69Z"></path>
    <path class="sun-outer" fill="#ffd348" d="M19.28,53.5a25,25,0,1,0,9.15-34.16A25,25,0,0,0,19.28,53.5Z"></path>
    <path class="sun-inner" fill="url(#sun-inner-grad)" d="M22.74,51.5a21,21,0,1,0,7.69-28.69A21,21,0,0,0,22.74,51.5Z"></path>
  </symbol>
  <symbol id="s10">
    <use xlink:href="#cloud" fill="#999999" x="0" y="0" width="100" height="100" transform="translate(3,18) scale(1,1)"></use>
    <use xlink:href="#raindrop"  x="0" y="0" width="100" height="100" transform="translate(18,78) scale(1,1)"></use>
    <use xlink:href="#raindrop"  x="0" y="0" width="100" height="100" transform="translate(32,87) scale(1,1)"></use>
    <use xlink:href="#raindrop"  x="0" y="0" width="100" height="100" transform="translate(47,79) scale(1,1)"></use>
    <use xlink:href="#raindrop"  x="0" y="0" width="100" height="100" transform="translate(60,78) scale(1,1)"></use>
    <use xlink:href="#raindrop"  x="0" y="0" width="100" height="100" transform="translate(74,87) scale(1,1)"></use>
  </symbol>
  <symbol id="sunWinter">
    <g mask="url(#sunWinterMask)">
      <use class="sun-primitive" xlink:href="#sun" x="0" y="0" width="100" height="100" transform="translate(4,-40) scale(1,1)"></use>
    </g>
    <path fill="#333333" d="M88.29,2.7H1.71A1.56,1.56,0,0,1,0,1.35,1.56,1.56,0,0,1,1.71,0H88.29A1.56,1.56,0,0,1,90,1.35,1.56,1.56,0,0,1,88.29,2.7Z"></path>
  </symbol>

  <defs>
    <mask id="cloud_3_18_1_1_5">
    <rect x="0" y="0" width="100" height="100" fill="white"></rect>
    <use xlink:href="#cloud" fill="black" stroke="black" stroke-linejoin="round" stroke-width="10" x="0" y="0" width="100" height="100" transform="translate(3,18) scale(1,1)"></use>
  </mask>
    <mask id="sunWinterMask">
      <rect x="0" y="0" width="100" height="100" fill="white"></rect>
    </mask>
    <radialGradient id="sun-glow-grad" cx="41" cy="41" r="41" gradientUnits="userSpaceOnUse">
      <stop offset="54%" stop-color="#d6b849"/>
      <stop offset="67%" stop-color="#ffce47"/>
      <stop offset="100%" stop-color="#ffdb73"/>
    </radialGradient>
    <linearGradient id="sun-inner-grad" x1="0%" y1="0%" x2="100%" y2="100%">
      <stop offset="0%" stop-color="#ffaf22" />
      <stop offset="100%" stop-color="#f09900" />
    </linearGradient>
  </defs>
  <symbol id="s41m">
    <g mask="url(#cloud_3_18_1_1_5)">
      <use xlink:href="#sunWinter"  x="0" y="0" width="100" height="100" transform="translate(0,19) scale(0.7,0.7)"></use>
    </g>
    <use xlink:href="#s10" x="0" y="0" width="100" height="100"></use>
  </symbol>
  <use xlink:href="#s41m" x="0" y="0" width="100" height="100"></use>
</svg>
